X: 1
T: Tidy Anne
R: slide
M: 12/8
L: 1/8
K: Dmaj
|:D2d BAF D2d B2A|F2E EDE F2E EFE|
D2d BAF D2d B2c|1 def edc d2A GFE:|2 def edc d3 d2e||
fgf fed efe edc|ded dcB A3 d2e|
fgf fed efe edc|def edc d3 d2e|
fgf fed efe edc|ded dcB A3 d2e|
f2f fed efe edc|def edc d2A GFE||

